X:1
T:Hesperus, LM
T:Hesperus, LM
T:Henry Baker, 1854
T:Public Domain Courtesy of the Cyber Hymnal™
C:Henry Baker, 1854
Z:Public Domain
Z:Courtesy of the Cyber Hymnal™
%%score ( 1 2 ) ( 3 4 )
L:1/8
M:3/4
K:F
V:1 treble 
V:2 treble 
V:3 bass 
V:4 bass 
V:1
 [FA]2 [FA]2 [FA]2 | [Fc]4 F2 | [FG]4 [EG]2 | [FA]6 | [Fc]2 [Fc]2 [Fc]2 | [DB]4 [EG]2 | %6
 [FA]4 [GB]2 | [EG]6 | [EG]2 [EG]2 [EG]2 | [FG]4 [FG]2 | [F=B]4 [FG]2 | [Ec]6 | %12
 [FA]2 [EA]2 [_EA]2 | (A2 G2) [DF]2 | [CF]4 [CE]2 | [CF]6 |] %16
V:2
 x6 | x4 F2 | x6 | x6 | x6 | x6 | x6 | x6 | x6 | x6 | x6 | x6 | x6 | D4 x2 | x6 | x6 |] %16
V:3
 [F,C]2 [F,C]2 [F,C]2 | [A,,C]4 [A,,C]2 | [B,,D]4 [C,C]2 | [F,C]6 | [A,C]2 [A,C]2 [A,C]2 | %5
 [G,D]4 [C,C]2 | [F,C]4 [B,,D]2 | [C,C]6 | [C,C]2 [C,C]2 [C,C]2 | [=B,,D]4 [B,,D]2 | %10
 [G,,D]4 [G,=B,]2 | [C,C]6 | [F,C]2 [F,C]2 [F,C]2 | [B,,B,]4 [=B,,A,]2 | (G,2 A,2) [C,B,]2 | %15
 [F,A,]6 |] %16
V:4
 x6 | x6 | x6 | x6 | x6 | x6 | x6 | x6 | x6 | x6 | x6 | x6 | x6 | x6 | C,4 x2 | x6 |] %16

